X:1
N: The Deil Amang the Tailors (Pipes)
N: 8x32R 3C (RSCDS Book 14)
T: The Deil Amang the Tailors
C: From Matt Petrie
C: Arr. T. Traub 7-9-03
R: reel
M: 4/4
%
K: A
L: 1/8
|: ef|"A"a2 ef a2 ef|"A"a2 ea fedc|"Bm"dfBf dfBf|"Bm"fef=g "E7"aefg|"A"a2 ef a2 ef|
"A"a2 ea fedc|"D"defd "A"ecBA|"G" =G2 B2 "A"A2 :||: ed|"A"ceAe ceAe|"A"ceAa "F#m"fedc|
"Bm"dfBf dfBf|"Bm"dfBa "E7"=gfed|"A"ceAe ceAe|"A"ceAa fedc|"D"defd "A"ecBA|"G"=G2 B2 "A"A2 :|
